X: 114204
Q: "Reel."
M: C
L: 1/8
K: C
uG |\
c2ed c2GB | c2GF (EC)CA |\
defe d2(A^c) | d2AG (FD)DB |\
c2ed c2GB | c2GF (EC)CE |\
uf |\
ecgc acgc | ecgc ecce |\
fdad bdad | fgag fddf |\
ecgc acgc | GAcd eccg |\
afge fde^c | d2AG (FD) D |]


